files/resources/svgs/general/o-credit-card.svg

<svg width="24" height="24" viewBox="0 0 24 24" fill="none" xmlns="http://www.w3.org/2000/svg">
<path d="M2.25 8.25H21.75M2.25 9H21.75M5.25 14.25H11.25M5.25 16.5H8.25M4.5 19.5H19.5C20.7426 19.5 21.75 18.4926 21.75 17.25V6.75C21.75 5.50736 20.7426 4.5 19.5 4.5H4.5C3.25736 4.5 2.25 5.50736 2.25 6.75V17.25C2.25 18.4926 3.25736 19.5 4.5 19.5Z" stroke="#0F172A" stroke-width="1.5" stroke-linecap="round" stroke-linejoin="round"/>
</svg>

<svg xmlns="http://www.w3.org/2000/svg" fill="none" viewBox="0 0 24 24" stroke-width="1.5" stroke="currentColor" aria-hidden="true">
  <path stroke-linecap="round" stroke-linejoin="round" d="M2.25 8.25h19.5M2.25 9h19.5m-16.5 5.25h6m-6 2.25h3m-3.75 3h15a2.25 2.25 0 002.25-2.25V6.75A2.25 2.25 0 0019.5 4.5h-15a2.25 2.25 0 00-2.25 2.25v10.5A2.25 2.25 0 004.5 19.5z"/>
</svg>
